X: 42092
T: Wandering Minstrel, The
R: jig
M: 6/8
K: Dmajor
|:B|Add BAF|Ade fdB|Add BAF|AFD EDE|
Add BAF|Ade fdB|AdB AFE|FDC D2:|
|:B|Ade ~f3|ede fdB|Ade faf|edB BAF|
Ade ~f3|ede fdB|AdB AFE|FDC D2:|

